src/assets/icons/pro/modals/pop-in-person.svg

<svg width="220" height="163" viewBox="0 0 220 163" fill="none" xmlns="http://www.w3.org/2000/svg">
<path d="M61.403 33.2518H24.6269C20.3363 33.2518 18.6727 30.4498 18.3224 28.7861C17.797 26.7722 19.2856 24.5831 21.212 23.7075C22.1751 23.3572 23.3135 23.2697 24.3642 23.3572C25.4149 23.4448 26.4657 23.7951 27.3413 24.3204C26.7284 20.8179 25.7652 16.1771 26.203 12.6746C26.6408 9.17216 28.3045 5.49455 31.3692 3.65574C34.4339 1.72938 38.9871 2.16719 41.0886 5.05674C42.4896 6.98311 42.6647 9.52241 42.3144 11.799C43.1901 10.2229 44.4159 8.99704 45.9045 8.03385C47.3931 7.07067 49.1443 6.63286 50.8955 6.5453C52.6468 6.5453 54.3105 6.98311 55.799 7.85873C57.2876 8.73435 58.5135 10.0478 59.3015 11.5363C60.0896 13.0249 60.5274 14.7761 60.4398 16.5274C60.3523 18.2786 59.8269 19.9423 58.7761 21.3433C60.002 20.8179 61.3154 20.6428 62.6289 20.9055C63.9423 21.0806 65.1682 21.6936 66.2189 22.5692C67.2697 23.4448 67.9702 24.5831 68.2329 25.8965C68.5831 27.21 68.408 28.5234 67.9702 29.7493C66.7443 32.0259 64.0299 33.2518 61.403 33.2518Z" stroke="#CFD8DC" stroke-width="3" stroke-linecap="round" stroke-linejoin="round"/>
<path d="M217.176 158.991H2.82422" stroke="#CFD8DC" stroke-width="3" stroke-linecap="round" stroke-linejoin="round"/>
<path d="M19.7234 156.364C11.7553 156.364 9.56621 150.498 8.69059 143.493C7.81497 136.488 8.60303 128.082 11.4926 123.003C13.8568 118.975 17.1841 115.735 20.4239 112.408C28.9175 103.739 37.1483 94.195 41.1762 82.2866C42.4896 78.2587 43.3652 74.1433 44.9413 70.203C46.5175 66.2627 48.8816 62.5851 52.3841 60.6587C54.5732 59.608 57.0249 58.995 59.4767 58.8199C68.5831 57.7692 77.7772 58.1194 86.7085 59.9582C88.8976 60.3085 90.9991 61.009 93.013 62.0597C96.0777 63.8109 98.2667 66.9632 100.018 70.203C104.571 78.6965 106.76 88.5035 108.511 98.1353C109.912 105.666 111.051 113.196 112.014 120.726C112.714 126.243 113.327 131.847 112.627 137.363C111.839 142.88 109.562 148.308 105.447 151.636C101.944 154.438 97.1284 156.452 93.1005 156.452L19.7234 156.364Z" fill="#13C1AC" stroke="#13C1AC" stroke-width="3" stroke-linecap="round" stroke-linejoin="round"/>
<path d="M103.871 91.6562C105.885 94.2831 108.074 97.1727 111.314 98.0483C114.729 99.0115 118.406 97.6105 121.909 97.4353C122.697 97.3478 123.485 97.5229 124.186 97.8732C126.024 99.0115 125.587 101.813 124.711 103.74C121.384 111.27 115.692 117.4 110 123.354" fill="#13C1AC"/>
<path d="M103.871 91.6562C105.885 94.2831 108.074 97.1727 111.314 98.0483C114.729 99.0115 118.406 97.6105 121.909 97.4353C122.697 97.3478 123.485 97.5229 124.186 97.8732C126.024 99.0115 125.587 101.813 124.711 103.74C121.384 111.27 115.692 117.4 110 123.354" stroke="#13C1AC" stroke-width="3" stroke-linecap="round" stroke-linejoin="round"/>
<path d="M149.578 93.9326C143.449 95.9465 136.969 96.2968 130.577 96.9973C129.264 97.1724 127.688 97.4351 127.075 98.661C126.462 99.8869 127.25 101.288 127.95 102.514C132.766 110.307 137.932 118.45 146.076 122.565" fill="#FD6C67"/>
<path d="M149.578 93.9326C143.449 95.9465 136.969 96.2968 130.577 96.9973C129.264 97.1724 127.688 97.4351 127.075 98.661C126.462 99.8869 127.25 101.288 127.95 102.514C132.766 110.307 137.932 118.45 146.076 122.565" stroke="#FD6C67" stroke-width="3" stroke-linecap="round" stroke-linejoin="round"/>
<path d="M143.624 156.364C138.721 156.364 138.371 151.461 138.195 148.659C136.444 128.169 141.26 107.68 146.164 87.6281C149.579 73.7057 153.081 59.6958 158.422 46.2988C159.035 44.6351 159.823 43.059 160.787 41.5704C162.538 39.4689 164.814 37.8052 167.266 36.6669C173.483 33.7774 180.4 32.9018 187.23 33.9525C190.032 34.3028 192.659 35.3535 195.023 36.9296C199.577 40.4321 200.627 46.649 200.715 52.253C200.978 70.3784 194.41 88.4162 196.775 106.366C197.913 115.385 201.328 123.966 203.079 132.898C204.042 137.539 205.005 145.069 203.692 149.622C202.379 154.263 199.664 156.102 194.586 156.102H143.624V156.364Z" fill="#FD6C67" stroke="#FD6C67" stroke-width="3" stroke-linecap="round" stroke-linejoin="round"/>
<path d="M104.921 43.3214L102.382 37.8926" stroke="#90A4AE" stroke-width="3" stroke-linecap="round" stroke-linejoin="round"/>
<path d="M121.733 36.7547L121.909 31.501" stroke="#90A4AE" stroke-width="3" stroke-linecap="round" stroke-linejoin="round"/>
<path d="M139.333 38.5054L141.522 33.9521" stroke="#90A4AE" stroke-width="3" stroke-linecap="round" stroke-linejoin="round"/>
<path fill-rule="evenodd" clip-rule="evenodd" d="M165.252 48.2245C165.34 47.6991 165.164 47.1737 164.989 46.7359C164.727 46.2981 164.376 45.8603 163.939 45.6852C163.501 45.4225 162.975 45.3349 162.45 45.4225C161.925 45.51 161.399 45.6852 161.049 46.0354C160.699 46.3857 160.348 46.8235 160.173 47.3488C159.998 47.8742 159.998 48.3996 160.173 48.8374C160.348 49.3628 160.611 49.8006 161.049 50.0633C161.487 50.4135 161.925 50.5886 162.45 50.5886C163.15 50.6762 163.851 50.4135 164.376 49.9757C164.902 49.5379 165.252 48.8374 165.252 48.2245Z" fill="#A31745"/>
<path fill-rule="evenodd" clip-rule="evenodd" d="M192.395 50.5887C192.483 50.0634 192.308 49.538 192.133 49.1002C191.87 48.6624 191.52 48.2246 191.082 48.0494C190.644 47.7867 190.119 47.6992 189.593 47.7867C189.068 47.8743 188.543 48.0494 188.193 48.3997C187.755 48.7499 187.492 49.1877 187.317 49.7131C187.142 50.2385 187.142 50.7639 187.317 51.2017C187.492 51.727 187.755 52.1649 188.193 52.4275C188.63 52.7778 189.068 52.9529 189.593 52.9529C190.294 53.0405 190.994 52.7778 191.52 52.34C192.045 51.9022 192.395 51.2892 192.395 50.5887Z" fill="#A31745"/>
<path d="M168.492 48.4873L183.115 49.8007L182.765 53.741C182.59 55.6674 181.626 57.5062 180.138 58.7321C178.649 59.9579 176.723 60.5709 174.796 60.3958C172.87 60.2206 171.031 59.2574 169.805 57.7689C168.58 56.2803 167.967 54.354 168.142 52.4276L168.492 48.4873Z" fill="#A31745" stroke="#A31745" stroke-width="3" stroke-linecap="round" stroke-linejoin="round"/>
<path d="M182.502 55.2301C181.626 54.3545 180.488 53.7416 179.262 53.3913C178.036 53.0411 176.81 52.9535 175.497 53.2162C174.271 53.4789 173.045 53.9167 172.082 54.7048C171.031 55.4928 170.243 56.456 169.718 57.5943C170.331 58.3824 171.119 59.0829 171.994 59.5207C172.87 59.9585 173.833 60.3088 174.884 60.3963C176.548 60.5715 178.211 60.1336 179.612 59.1705C180.926 58.2073 181.976 56.8938 182.502 55.2301Z" fill="#FD6C67" stroke="#A31745" stroke-width="3" stroke-linecap="round" stroke-linejoin="round"/>
<path fill-rule="evenodd" clip-rule="evenodd" d="M91.5243 73.0926C91.4367 72.5673 91.6118 72.0419 91.787 71.6041C92.0496 71.1663 92.3999 70.7285 92.8377 70.5533C93.2755 70.2906 93.8009 70.2031 94.3263 70.2906C94.8516 70.3782 95.377 70.5533 95.7273 70.9036C96.1651 71.2538 96.4278 71.6916 96.6029 72.217C96.778 72.7424 96.778 73.2678 96.6029 73.7056C96.4278 74.231 96.1651 74.6688 95.7273 74.9314C95.2895 75.2817 94.8516 75.4568 94.3263 75.4568C93.6258 75.5444 92.9253 75.2817 92.3999 74.8439C91.9621 74.4061 91.6118 73.7931 91.5243 73.0926Z" fill="#04413C"/>
<path fill-rule="evenodd" clip-rule="evenodd" d="M64.3797 75.5448C64.2922 75.0194 64.4673 74.494 64.6424 74.0562C64.9051 73.6184 65.2554 73.1806 65.6932 73.0055C66.131 72.7428 66.6563 72.6552 67.1817 72.7428C67.7071 72.8304 68.2325 73.0055 68.5827 73.3557C68.933 73.706 69.2832 74.1438 69.4583 74.6692C69.6335 75.1945 69.6335 75.7199 69.4583 76.1577C69.2832 76.6831 69.0205 77.1209 68.5827 77.3836C68.1449 77.7338 67.7071 77.909 67.1817 77.909C66.4812 77.9965 65.7807 77.7338 65.2554 77.296C64.73 76.8582 64.4673 76.2453 64.3797 75.5448Z" fill="#04413C"/>
<path d="M81.9805 85.2639C80.0542 85.439 78.1278 84.8261 76.6392 83.6002C75.1507 82.3744 74.1875 80.5355 74.0124 78.6092L73.6621 74.6689L88.285 73.3555L88.6353 77.2958C88.8104 79.2221 88.1974 81.1485 86.9716 82.637C85.7457 84.2132 83.9069 85.0888 81.9805 85.2639Z" fill="#04413C" stroke="#04413C" stroke-width="3" stroke-linecap="round" stroke-linejoin="round"/>
<path d="M74.2744 80.1852C75.15 79.3096 76.2883 78.6967 77.5142 78.3464C78.7401 77.9962 79.966 77.9086 81.2794 78.1713C82.5053 78.434 83.7311 78.8718 84.6943 79.6599C85.7451 80.4479 86.5331 81.4111 87.0585 82.5494C86.4456 83.3375 85.6575 84.038 84.7819 84.4758C83.9063 84.9136 82.9431 85.2638 81.8923 85.3514C80.2286 85.5265 78.565 85.0887 77.164 84.1255C75.8505 83.1623 74.7998 81.7613 74.2744 80.1852Z" fill="#13C1AC" stroke="#04413C" stroke-width="3" stroke-linecap="round" stroke-linejoin="round"/>
<path opacity="0.2" d="M109.212 137.276C97.0412 141.917 84.0819 144.281 71.0352 144.456C57.0252 144.456 44.066 137.889 35.0471 132.022C32.07 130.008 29.268 127.819 26.2909 125.805C22.4382 123.266 18.2352 121.165 13.9446 119.501C13.069 120.639 12.1934 121.778 11.4929 123.003C8.51579 128.082 7.81529 136.4 8.69091 143.493C9.56653 150.586 11.7556 156.365 19.7237 156.365H93.1008C97.1287 156.365 101.945 154.351 105.447 151.549C109.563 148.309 111.927 142.793 112.627 137.276C112.715 136.838 112.715 136.313 112.802 135.875L109.212 137.276Z" fill="#04413C" stroke="#04413C" stroke-width="3" stroke-linecap="round" stroke-linejoin="round"/>
<path opacity="0.2" d="M201.065 124.491C196.687 126.943 192.484 133.335 185.917 138.676C181.889 142.004 176.285 142.792 171.119 142.529C166.128 142.266 161.224 141.478 156.496 140.077C152.731 138.939 149.053 137.538 145.2 136.75C142.836 136.225 140.472 136.049 138.02 136.137C137.845 140.34 137.933 144.455 138.283 148.658C138.546 151.46 138.808 156.364 143.712 156.364H194.673C199.752 156.364 202.466 154.437 203.779 149.884C205.093 145.243 204.13 137.801 203.254 133.16C202.554 130.183 201.853 127.381 201.065 124.491Z" fill="#A31745" stroke="#A31745" stroke-width="3" stroke-linecap="round" stroke-linejoin="round"/>
</svg>

<svg width="220" height="163" fill="none" xmlns="http://www.w3.org/2000/svg"><path d="M61.403 33.252H24.627c-4.29 0-5.954-2.802-6.305-4.466-.525-2.014.964-4.203 2.89-5.079.963-.35 2.102-.437 3.152-.35a7.027 7.027 0 012.977.963c-.613-3.502-1.576-8.143-1.138-11.645.438-3.503 2.102-7.18 5.166-9.02 3.065-1.926 7.618-1.488 9.72 1.402 1.4 1.926 1.576 4.465 1.225 6.742.876-1.576 2.102-2.802 3.59-3.765 1.49-.963 3.24-1.401 4.991-1.489 1.752 0 3.415.438 4.904 1.314a9.418 9.418 0 013.502 3.677c.789 1.489 1.226 3.24 1.139 4.991-.088 1.752-.613 3.415-1.664 4.816 1.226-.525 2.54-.7 3.853-.438 1.313.176 2.54.789 3.59 1.664 1.05.876 1.751 2.014 2.014 3.328.35 1.313.175 2.626-.263 3.852-1.226 2.277-3.94 3.503-6.567 3.503zM217.176 158.991H2.824" stroke="#CFD8DC" stroke-width="3" stroke-linecap="round" stroke-linejoin="round"/><path d="M19.723 156.364c-7.968 0-10.157-5.866-11.032-12.871-.876-7.005-.088-15.411 2.802-20.49 2.364-4.028 5.691-7.268 8.93-10.595 8.495-8.669 16.725-18.213 20.753-30.121 1.314-4.028 2.19-8.144 3.765-12.084 1.576-3.94 3.94-7.618 7.443-9.544 2.19-1.051 4.64-1.664 7.093-1.84 9.106-1.05 18.3-.7 27.232 1.14 2.189.35 4.29 1.05 6.304 2.1 3.065 1.752 5.254 4.904 7.005 8.144 4.553 8.493 6.742 18.3 8.493 27.932 1.401 7.531 2.54 15.061 3.503 22.591.7 5.517 1.313 11.121.613 16.637-.788 5.517-3.065 10.945-7.18 14.273-3.503 2.802-8.319 4.816-12.347 4.816l-73.377-.088z" fill="#13C1AC" stroke="#13C1AC" stroke-width="3" stroke-linecap="round" stroke-linejoin="round"/><path d="M103.871 91.656c2.014 2.627 4.203 5.517 7.443 6.392 3.415.963 7.092-.438 10.595-.613.788-.087 1.576.088 2.277.438 1.838 1.138 1.401 3.94.525 5.867-3.327 7.53-9.019 13.66-14.711 19.614" fill="#13C1AC"/><path d="M103.871 91.656c2.014 2.627 4.203 5.517 7.443 6.392 3.415.963 7.092-.438 10.595-.613.788-.087 1.576.088 2.277.438 1.838 1.138 1.401 3.94.525 5.867-3.327 7.53-9.019 13.66-14.711 19.614" stroke="#13C1AC" stroke-width="3" stroke-linecap="round" stroke-linejoin="round"/><path d="M149.578 93.933c-6.129 2.013-12.609 2.364-19.001 3.064-1.313.175-2.889.438-3.502 1.664s.175 2.627.875 3.853c4.816 7.793 9.982 15.936 18.126 20.051" fill="#FD6C67"/><path d="M149.578 93.933c-6.129 2.013-12.609 2.364-19.001 3.064-1.313.175-2.889.438-3.502 1.664s.175 2.627.875 3.853c4.816 7.793 9.982 15.936 18.126 20.051" stroke="#FD6C67" stroke-width="3" stroke-linecap="round" stroke-linejoin="round"/><path d="M143.624 156.364c-4.903 0-5.253-4.903-5.429-7.705-1.751-20.49 3.065-40.979 7.969-61.03 3.415-13.923 6.917-27.933 12.258-41.33a23.826 23.826 0 012.365-4.729c1.751-2.101 4.027-3.765 6.479-4.903 6.217-2.89 13.134-3.765 19.964-2.715 2.802.35 5.429 1.401 7.793 2.978 4.554 3.502 5.604 9.719 5.692 15.323.263 18.125-6.305 36.163-3.94 54.113 1.138 9.019 4.553 17.6 6.304 26.532.963 4.641 1.926 12.171.613 16.724-1.313 4.641-4.028 6.48-9.106 6.48h-50.962v.262z" fill="#FD6C67" stroke="#FD6C67" stroke-width="3" stroke-linecap="round" stroke-linejoin="round"/><path d="M104.921 43.321l-2.539-5.428M121.733 36.755l.176-5.254M139.333 38.505l2.189-4.553" stroke="#90A4AE" stroke-width="3" stroke-linecap="round" stroke-linejoin="round"/><path fill-rule="evenodd" clip-rule="evenodd" d="M165.252 48.224c.088-.525-.088-1.05-.263-1.488-.262-.438-.613-.876-1.05-1.05-.438-.264-.964-.351-1.489-.264-.525.088-1.051.263-1.401.613-.35.35-.701.789-.876 1.314-.175.525-.175 1.05 0 1.488.175.526.438.964.876 1.226.438.35.876.526 1.401.526.7.087 1.401-.175 1.926-.613.526-.438.876-1.139.876-1.752zM192.395 50.589c.088-.526-.087-1.051-.262-1.489-.263-.438-.613-.875-1.051-1.05-.438-.263-.963-.35-1.489-.263-.525.087-1.05.262-1.4.613-.438.35-.701.788-.876 1.313-.175.526-.175 1.05 0 1.489.175.525.438.963.876 1.226.437.35.875.525 1.4.525.701.087 1.401-.175 1.927-.613.525-.438.875-1.05.875-1.751z" fill="#A31745"/><path d="M168.492 48.487l14.623 1.314-.35 3.94a7.405 7.405 0 01-2.627 4.991 7.385 7.385 0 01-5.342 1.664 7.404 7.404 0 01-4.991-2.627 7.387 7.387 0 01-1.663-5.341l.35-3.94z" fill="#A31745" stroke="#A31745" stroke-width="3" stroke-linecap="round" stroke-linejoin="round"/><path d="M182.502 55.23c-.876-.875-2.014-1.488-3.24-1.839-1.226-.35-2.452-.438-3.765-.175-1.226.263-2.452.7-3.415 1.489-1.051.788-1.839 1.751-2.364 2.89.613.787 1.401 1.488 2.276 1.926.876.438 1.839.788 2.89.875 1.664.175 3.327-.262 4.728-1.226 1.314-.963 2.364-2.276 2.89-3.94z" fill="#FD6C67" stroke="#A31745" stroke-width="3" stroke-linecap="round" stroke-linejoin="round"/><path fill-rule="evenodd" clip-rule="evenodd" d="M91.524 73.093c-.087-.526.088-1.051.263-1.489.263-.438.613-.876 1.05-1.05.438-.263.964-.35 1.49-.263.525.087 1.05.262 1.4.613.438.35.7.788.876 1.313.175.525.175 1.05 0 1.489-.175.525-.438.963-.876 1.225-.438.35-.875.526-1.4.526-.701.087-1.402-.175-1.927-.613a3.045 3.045 0 01-.876-1.751zM64.38 75.545c-.088-.526.087-1.051.262-1.489.263-.438.613-.875 1.051-1.05.438-.263.963-.35 1.489-.263.525.087 1.05.263 1.4.613.351.35.701.788.876 1.313.175.526.175 1.05 0 1.489-.175.525-.438.963-.875 1.226-.438.35-.876.525-1.401.525-.7.087-1.401-.175-1.927-.613-.525-.438-.788-1.05-.875-1.751z" fill="#04413C"/><path d="M81.98 85.264a7.383 7.383 0 01-5.34-1.664 7.403 7.403 0 01-2.628-4.99l-.35-3.941 14.623-1.313.35 3.94a7.383 7.383 0 01-1.663 5.341c-1.226 1.576-3.065 2.452-4.991 2.627z" fill="#04413C" stroke="#04413C" stroke-width="3" stroke-linecap="round" stroke-linejoin="round"/><path d="M74.274 80.185c.876-.875 2.014-1.488 3.24-1.839 1.226-.35 2.452-.437 3.765-.175 1.226.263 2.452.7 3.415 1.489 1.051.788 1.84 1.751 2.364 2.89-.612.788-1.4 1.488-2.276 1.926-.876.438-1.839.788-2.89.875-1.663.175-3.327-.262-4.728-1.225a8.162 8.162 0 01-2.89-3.94z" fill="#13C1AC" stroke="#04413C" stroke-width="3" stroke-linecap="round" stroke-linejoin="round"/><path opacity=".2" d="M109.212 137.276c-12.17 4.641-25.13 7.005-38.177 7.18-14.01 0-26.969-6.567-35.988-12.434-2.977-2.014-5.779-4.203-8.756-6.217-3.853-2.539-8.056-4.64-12.346-6.304-.876 1.138-1.752 2.277-2.452 3.502-2.977 5.079-3.678 13.397-2.802 20.49.876 7.093 3.065 12.872 11.033 12.872H93.1c4.028 0 8.844-2.014 12.346-4.816 4.116-3.24 6.48-8.756 7.18-14.273.088-.438.088-.963.175-1.401l-3.59 1.401z" fill="#04413C" stroke="#04413C" stroke-width="3" stroke-linecap="round" stroke-linejoin="round"/><path opacity=".2" d="M201.065 124.491c-4.378 2.452-8.581 8.844-15.148 14.185-4.028 3.328-9.632 4.116-14.798 3.853-4.991-.263-9.895-1.051-14.623-2.452-3.765-1.138-7.443-2.539-11.296-3.327-2.364-.525-4.728-.701-7.18-.613a99.704 99.704 0 00.263 12.521c.263 2.802.525 7.706 5.429 7.706h50.961c5.079 0 7.793-1.927 9.106-6.48 1.314-4.641.351-12.083-.525-16.724-.7-2.977-1.401-5.779-2.189-8.669z" fill="#A31745" stroke="#A31745" stroke-width="3" stroke-linecap="round" stroke-linejoin="round"/></svg>
